src/images/trends-icon.svg

<svg xmlns="http://www.w3.org/2000/svg" width="119" height="119" fill="none" viewBox="0 0 119 119"><rect width="119" height="119" fill="#F7A501" rx="8"/><path fill="#35416B" fill-rule="evenodd" d="M16.4585 31.3962H92.8987L98.391 95.2746L92.8987 100H16.4585V31.3962Z" clip-rule="evenodd"/><path fill="#6C8BB1" fill-rule="evenodd" d="M21.949 26.2311H98.3907V94.8352H21.949V26.2311Z" clip-rule="evenodd"/><path fill="#4F6E94" fill-rule="evenodd" d="M21.976 26.1176L16.4789 31.3088L16.4199 100.08L21.9967 94.8197L21.976 26.1176Z" clip-rule="evenodd"/><path fill="#4F6E94" fill-rule="evenodd" d="M92.9492 31.6029L93.024 86.5781L88.3013 86.3622V36.0698L92.9492 31.6029Z" clip-rule="evenodd"/><path fill="#35416B" fill-rule="evenodd" d="M93.2761 31.4237L27.5688 31.9214V36.2995L88.829 36.0438L93.2761 31.4237Z" clip-rule="evenodd"/><path fill="#9ABCE6" fill-rule="evenodd" d="M32.8556 37.8783H82.975C84.4759 37.8783 85.6932 38.9747 85.6932 40.3284V81.8952C85.6932 83.2489 84.4759 84.3453 82.975 84.3453H32.8556C31.3547 84.3453 30.1389 83.2489 30.1389 81.8952V40.3284C30.1389 38.9747 31.3547 37.8783 32.8556 37.8783Z" clip-rule="evenodd"/><path fill="#fff" fill-rule="evenodd" d="M37.913 49.6849H54.186C55.6535 49.6849 56.8453 51.1765 56.8453 53.0156V78.4605C56.8453 80.2981 55.6535 81.7927 54.186 81.7927H37.913C36.4439 81.7927 35.2537 80.3011 35.2537 78.4605V53.011C35.2537 51.1719 36.4439 49.6849 37.913 49.6849Z" clip-rule="evenodd"/><path fill="#fff" fill-rule="evenodd" d="M62.6422 49.6742H77.6819C79.0411 49.6742 80.1405 51.0371 80.1405 52.7185V78.6471C80.1405 80.3316 79.0411 81.6914 77.6819 81.6914H62.6422C61.2846 81.6914 60.1836 80.3285 60.1836 78.6471V52.7185C60.1836 51.0371 61.2846 49.6742 62.6422 49.6742Z" clip-rule="evenodd"/><path fill="#fff" fill-rule="evenodd" d="M35.9229 42.3086H56.1761C56.2639 42.3084 56.3509 42.3248 56.4321 42.357C56.5133 42.3892 56.5871 42.4364 56.6492 42.496C56.7114 42.5556 56.7607 42.6264 56.7944 42.7043C56.828 42.7823 56.8453 42.8658 56.8453 42.9502V44.3958C56.8453 44.4802 56.828 44.5639 56.7944 44.6419C56.7608 44.7199 56.7115 44.7908 56.6493 44.8506C56.5872 44.9103 56.5134 44.9577 56.4322 44.99C56.351 45.0223 56.264 45.0389 56.1761 45.0389H35.9229C35.7454 45.0389 35.5752 44.9712 35.4497 44.8506C35.3242 44.7299 35.2537 44.5664 35.2537 44.3958V42.9472C35.2545 42.7773 35.3254 42.6146 35.4509 42.4949C35.5763 42.3752 35.7461 42.3082 35.9229 42.3086Z" clip-rule="evenodd"/><path stroke="#F96132" stroke-linecap="round" stroke-linejoin="round" stroke-width="1.71" d="M11.7622 56.8724L45.8287 74.382L111.967 8.29919"/><path fill="#fff" fill-rule="evenodd" stroke="#F96132" stroke-linecap="round" stroke-linejoin="round" stroke-width="1.485" d="M110.317 7.7944C110.312 7.44331 110.415 7.09872 110.615 6.80445C110.814 6.51018 111.1 6.27952 111.436 6.14182C111.772 6.00411 112.143 5.96557 112.502 6.0311C112.861 6.09664 113.191 6.26328 113.452 6.50984C113.712 6.7564 113.89 7.07174 113.963 7.41576C114.036 7.75977 114.001 8.11692 113.862 8.44178C113.724 8.76665 113.488 9.04455 113.184 9.24015C112.881 9.43575 112.524 9.5402 112.158 9.54024C111.918 9.54192 111.68 9.49809 111.457 9.41125C111.235 9.3244 111.032 9.19626 110.861 9.03412C110.69 8.87199 110.554 8.67905 110.46 8.46633C110.367 8.25361 110.318 8.02529 110.317 7.7944Z" clip-rule="evenodd"/><path fill="#fff" fill-rule="evenodd" stroke="#F96132" stroke-linecap="round" stroke-linejoin="round" stroke-width="1.485" d="M10.0002 56.4813C9.99516 56.1302 10.0989 55.7856 10.2982 55.4913C10.4975 55.1971 10.7834 54.9664 11.1195 54.8287C11.4556 54.691 11.8267 54.6525 12.1856 54.718C12.5445 54.7835 12.8751 54.9502 13.1352 55.1967C13.3953 55.4433 13.5732 55.7586 13.6464 56.1026C13.7195 56.4467 13.6845 56.8038 13.5459 57.1287C13.4073 57.4535 13.1713 57.7314 12.8678 57.927C12.5644 58.1226 12.2073 58.2271 11.842 58.2271C11.6018 58.2288 11.3635 58.185 11.1409 58.0981C10.9183 58.0113 10.7157 57.8832 10.5447 57.721C10.3736 57.5589 10.2375 57.3659 10.1441 57.1532C10.0506 56.9405 10.0017 56.7122 10.0002 56.4813Z" clip-rule="evenodd"/><path fill="#fff" fill-rule="evenodd" stroke="#F96132" stroke-linecap="round" stroke-linejoin="round" stroke-width="1.485" d="M43.7424 73.8514C43.7373 73.5003 43.8411 73.1557 44.0404 72.8615C44.2397 72.5672 44.5256 72.3365 44.8617 72.1988C45.1978 72.0611 45.5689 72.0226 45.9278 72.0881C46.2867 72.1536 46.6173 72.3203 46.8774 72.5669C47.1375 72.8134 47.3155 73.1287 47.3886 73.4728C47.4618 73.8168 47.4268 74.1739 47.2882 74.4988C47.1495 74.8237 46.9135 75.1016 46.6101 75.2972C46.3067 75.4928 45.9496 75.5972 45.5842 75.5973C45.0991 75.6003 44.6326 75.4181 44.2872 75.0908C43.9419 74.7634 43.7459 74.3176 43.7424 73.8514Z" clip-rule="evenodd"/><path fill="#F96132" fill-rule="evenodd" stroke="#F96132" stroke-linecap="round" stroke-linejoin="round" stroke-width=".021" d="M31.755 81.207H43.6917L45.7396 78.9448L47.7743 81.207H60.0593C60.3415 81.207 60.6121 81.3147 60.8116 81.5065C61.0111 81.6982 61.1232 81.9583 61.1232 82.2295V102.854C61.1232 103.125 61.0111 103.385 60.8116 103.577C60.6121 103.768 60.3415 103.876 60.0593 103.876H31.755C31.4729 103.876 31.2023 103.768 31.0028 103.577C30.8033 103.385 30.6912 103.125 30.6912 102.854V82.2333C30.6906 82.0987 30.7178 81.9653 30.771 81.8408C30.8242 81.7164 30.9025 81.6032 31.0014 81.5078C31.1002 81.4125 31.2177 81.3368 31.347 81.2852C31.4763 81.2336 31.615 81.207 31.755 81.207Z" clip-rule="evenodd"/><path fill="#fff" fill-rule="evenodd" stroke="#F96132" stroke-linecap="round" stroke-linejoin="round" stroke-width=".021" d="M34.0103 84.3572H57.7718V100.494H34.0103V84.3572Z" clip-rule="evenodd"/><path fill="#35416B" fill-rule="evenodd" stroke="#35416B" stroke-linecap="round" stroke-linejoin="round" stroke-width=".021" d="M45.6955 86.9659C46.0227 86.9663 46.3364 87.0913 46.5678 87.3137C46.7991 87.5361 46.9293 87.8375 46.9296 88.152V93.3116C46.9296 93.6261 46.7996 93.9278 46.5682 94.1502C46.3367 94.3727 46.0228 94.4976 45.6955 94.4976C45.5334 94.4978 45.3729 94.4672 45.2231 94.4077C45.0732 94.3481 44.9371 94.2608 44.8225 94.1506C44.7079 94.0404 44.617 93.9096 44.555 93.7656C44.4931 93.6217 44.4613 93.4674 44.4614 93.3116V88.152C44.4614 87.8374 44.5915 87.5358 44.8229 87.3133C45.0543 87.0909 45.3682 86.9659 45.6955 86.9659Z" clip-rule="evenodd"/><path fill="#35416B" fill-rule="evenodd" stroke="#35416B" stroke-linecap="round" stroke-linejoin="round" stroke-width=".021" d="M45.7169 95.6631H45.7595C45.9074 95.6631 46.0539 95.6911 46.1905 95.7455C46.3272 95.7999 46.4514 95.8796 46.556 95.9802C46.6605 96.0807 46.7435 96.2 46.8001 96.3314C46.8567 96.4627 46.8859 96.6035 46.8859 96.7456C46.8855 97.0325 46.7667 97.3075 46.5555 97.5103C46.3443 97.713 46.058 97.8269 45.7595 97.8269H45.7169C45.4184 97.8269 45.1321 97.713 44.9209 97.5103C44.7098 97.3075 44.5909 97.0325 44.5906 96.7456C44.5906 96.4585 44.7092 96.1832 44.9205 95.9802C45.1317 95.7771 45.4182 95.6631 45.7169 95.6631Z" clip-rule="evenodd"/></svg>

<svg fill="none" viewBox="0 0 119 119"><rect width="119" height="119" fill="#F7A501" rx="8"/><path fill="#35416B" fill-rule="evenodd" d="M16.459 31.396h76.44l5.492 63.879L92.899 100h-76.44V31.396z" clip-rule="evenodd"/><path fill="#6C8BB1" fill-rule="evenodd" d="M21.949 26.231h76.442v68.604H21.949V26.231z" clip-rule="evenodd"/><path fill="#4F6E94" fill-rule="evenodd" d="M21.976 26.118l-5.497 5.19-.06 68.772 5.578-5.26-.021-68.702zm70.973 5.485l.075 54.975-4.723-.216V36.07l4.648-4.467z" clip-rule="evenodd"/><path fill="#35416B" fill-rule="evenodd" d="M93.276 31.424l-65.707.497V36.3l61.26-.256 4.447-4.62z" clip-rule="evenodd"/><path fill="#9ABCE6" fill-rule="evenodd" d="M32.856 37.878h50.119c1.5 0 2.718 1.097 2.718 2.45v41.567c0 1.354-1.217 2.45-2.718 2.45h-50.12c-1.5 0-2.716-1.096-2.716-2.45V40.328c0-1.353 1.216-2.45 2.717-2.45z" clip-rule="evenodd"/><path fill="#fff" fill-rule="evenodd" d="M37.913 49.685h16.273c1.468 0 2.66 1.491 2.66 3.33V78.46c0 1.838-1.192 3.333-2.66 3.333H37.913c-1.47 0-2.66-1.492-2.66-3.333V53.011c0-1.84 1.19-3.326 2.66-3.326zm24.73-.01h15.039c1.36 0 2.459 1.362 2.459 3.044v25.928c0 1.685-1.1 3.044-2.46 3.044H62.643c-1.357 0-2.458-1.362-2.458-3.044V52.718c0-1.68 1.1-3.044 2.458-3.044zm-26.72-7.366h20.253a.69.69 0 01.473.187.641.641 0 01.196.454v1.446a.622.622 0 01-.196.455.671.671 0 01-.473.188H35.923a.683.683 0 01-.473-.188.63.63 0 01-.196-.455v-1.449a.63.63 0 01.197-.452.682.682 0 01.472-.186z" clip-rule="evenodd"/><path stroke="#F96132" stroke-linecap="round" stroke-linejoin="round" stroke-width="1.71" d="M11.762 56.872l34.067 17.51 66.138-66.083"/><path fill="#fff" fill-rule="evenodd" stroke="#F96132" stroke-linecap="round" stroke-linejoin="round" stroke-width="1.485" d="M110.317 7.794a1.715 1.715 0 01.298-.99c.199-.294.485-.524.821-.662a1.91 1.91 0 011.066-.11c.359.065.689.231.95.478.26.246.438.562.511.906.073.344.038.7-.101 1.026a1.779 1.779 0 01-.678.798c-.303.196-.66.3-1.026.3a1.896 1.896 0 01-.701-.129 1.841 1.841 0 01-.596-.377 1.766 1.766 0 01-.401-.568 1.695 1.695 0 01-.143-.672zM10 56.481a1.72 1.72 0 01.298-.99c.2-.294.485-.525.822-.662a1.911 1.911 0 011.066-.111c.358.065.69.232.95.479.26.246.437.562.51.906.073.344.038.7-.1 1.026a1.786 1.786 0 01-.678.798c-.304.196-.66.3-1.026.3a1.892 1.892 0 01-.701-.129 1.834 1.834 0 01-.596-.377 1.754 1.754 0 01-.4-.568 1.696 1.696 0 01-.145-.672zm33.742 17.37a1.72 1.72 0 01.298-.99c.2-.294.486-.525.822-.662a1.911 1.911 0 011.066-.11c.359.065.69.231.95.478.26.246.438.562.51.906.074.344.039.7-.1 1.026a1.787 1.787 0 01-.678.798c-.303.196-.66.3-1.026.3a1.87 1.87 0 01-1.297-.506 1.726 1.726 0 01-.545-1.24z" clip-rule="evenodd"/><path fill="#F96132" fill-rule="evenodd" stroke="#F96132" stroke-linecap="round" stroke-linejoin="round" stroke-width=".021" d="M31.755 81.207h11.937l2.048-2.262 2.034 2.262H60.06c.283 0 .553.108.753.3.2.191.311.451.311.722v20.625c0 .271-.112.531-.311.723-.2.191-.47.299-.753.299H31.755c-.282 0-.553-.108-.752-.299a1.003 1.003 0 01-.312-.723v-20.62a.987.987 0 01.31-.726 1.102 1.102 0 01.754-.3z" clip-rule="evenodd"/><path fill="#fff" fill-rule="evenodd" stroke="#F96132" stroke-linecap="round" stroke-linejoin="round" stroke-width=".021" d="M34.01 84.357h23.762v16.137H34.01V84.357z" clip-rule="evenodd"/><path fill="#35416B" fill-rule="evenodd" stroke="#35416B" stroke-linecap="round" stroke-linejoin="round" stroke-width=".021" d="M45.696 86.966c.327 0 .64.125.872.348.231.222.361.524.362.838v5.16c0 .314-.13.616-.362.838a1.276 1.276 0 01-1.345.258 1.237 1.237 0 01-.4-.257 1.184 1.184 0 01-.268-.385 1.146 1.146 0 01-.094-.454v-5.16c0-.315.13-.616.362-.839a1.26 1.26 0 01.873-.347zm.02 8.697h.044a1.166 1.166 0 01.796.317c.105.1.188.22.244.351a1.046 1.046 0 01-.244 1.18 1.15 1.15 0 01-.796.316h-.043a1.15 1.15 0 01-.796-.317 1.062 1.062 0 01-.33-.764c0-.287.118-.563.33-.766a1.15 1.15 0 01.796-.317z" clip-rule="evenodd"/></svg>
